X: 21366
T: Kerry Lasses, The
R: reel
M: 4/4
K: Dmajor
F3G AF~F2|AG~G2 dcAG|F3G AF~F2|1 BGAG F~D2E:|2 BGAG FDcd||
K: Amix
e~e2d c3d|eg~g2 e~a2g|efed c3d|egec d2cd|
e~e2d c3d|eg~g2 e~a2g|abag e~e2d|egec dBAG||

